X:1
T:To Whom Can I Go?
T:To Whom Can I Go?
T:Thoro Harris
T:Thoro Harris, 1922
T:Public Domain Courtesy of the Cyber Hymnal™
C:Thoro Harris
Z:Public Domain
Z:Courtesy of the Cyber Hymnal™
%%score ( 1 2 ) ( 3 4 )
L:1/8
Q:1/4=88
M:6/8
K:Eb
V:1 treble 
V:2 treble 
V:3 bass 
V:4 bass 
V:1
 [EG] | [EG][E^F][EG] [Ec][EB]>E | [EG]3 [DF]2 [EG] | [FA][=EG][FA] [Ad][Ac][FA] | [EG]4 z [EG] | %5
w: 1.~To|whom can I go but to|Je- sus When|tempt- ed to doubt and des-|pair? He|
w: 2.~To|whom can I go but to|Je- sus? A-|bove me the tem- pest may|break: He|
w: 3.~To|whom can I go but to|Je- sus? Who|loves me so fond- ly as|He Who|
w: 4.~To|whom can I go but to|Je- sus? He|know- eth the way that I|take; His|
 [EG][E^F][EG] [Ec][EB]>E | [EG]3 [EF]2 [=EG] | [FA][EG][EF] [EG]<[DG][DF] | E4 z || %9
w: on- ly can heal my dis-|eas- es, He|on- ly will an- swer my|prayer.|
w: sure- ly will save me from|dan- ger, His|child He will ne- ver for-|sake.|
w: died on the cross to re-|deem me, And|liv- eth my help- er to|be?|
w: sheep He will sure- ly de-|liv- er; His|own He will ne- ver for-|sake.|
"^Refrain" [GB] | [Ge][Ed][Ec] [EB]2 [EB] | [Ec][EB][DA] [EG]2 [EG] | [EG][E^F][EG] [Ec][EB][EG] | %13
w: ||||
w: To|whom can I go? To|whom can I go But|to the dear Sav- ior who|
w: ||||
w: ||||
 [EG]<[EF][EF] [DF]2 [AB] | [Ge][Bd][Ac] [GB]2 [EB] | [Ec][EB][DA] [EG]2 [_DG] | %16
w: |||
w: lov- eth me so? This|won- der- ful friend Is|true to the end: To|
w: |||
w: |||
 [CF][CA][Ec] [B,E]2 [B,D] | [B,F]3 [B,E]2 |] %18
w: ||
w: whom can I go but|Je- sus?|
w: ||
w: ||
V:2
 x | x11/2 E/ | x6 | x6 | x6 | x11/2 E/ | x6 | x6 | E4 x || x | x6 | x6 | x6 | x6 | x6 | x6 | x6 | %17
 x5 |] %18
V:3
 [E,B,] | [E,B,][E,=A,][E,B,] [E,_A,][E,G,]>[E,G,] | [B,,B,]3 [B,,B,]2 [B,,B,] | %3
 [B,,B,][B,,B,][B,,B,] [B,,F,][C,F,][D,B,] | [E,B,]4 z [E,B,] | [C,C][C,C][C,C] A,[G,B,]>[=A,C] | %6
 B,3 [A,C]2 [G,B,] | [F,A,][G,B,][A,C] B,<B,[B,,A,] | [E,G,]4 z || [E,B,] | %10
 C[B,E][A,E] [G,B,]2 [E,G,] | A,[G,B,][F,B,] [E,B,]2 [E,B,] | %12
 [E,B,][E,=A,][E,B,] [E,_A,][E,G,][E,B,] | [C,=A,]<[C,A,][F,A,] [B,,A,]2 [D,B,] | %14
 [E,B,][E,C][E,D] [E,E]2 [E,G,] | [A,,A,][B,,G,][=B,,F,] [C,E,]2 [_B,,E,] | %16
 [A,,E,][A,,F,][=A,,^F,] [B,,G,]2 [B,,=F,] | [B,,A,]3 [E,G,]2 |] %18
V:4
 x | x6 | x6 | x6 | x6 | x3 =A, x2 | B,3 x3 | x3 B,<B, x | x5 || x | C x5 | A, x5 | x6 | x6 | x6 | %15
 x6 | x6 | x5 |] %18

